!!!COM: Antonio Caldara (1670-1736)
!!!OPR: Divertimenti musicali
!!!OTL: Kanon im Einklang
!!!YOR: From "Corona; Werkreihe fuer Kammerorchester" Nr. 105
!!!YOR: Edited by Adolf Hoffman.
!!!YOR: From "Ars Canonica, Series V" Canon No. 25
!!!YOR: Moeseler Verlag Wolfenbettel, 1969.
!! Cantus Firmus is marked "CF"
**kern	**kern	**kern	**kern
*conseq	*guida	*CF	*CFbackground
*k[]	*k[]	*k[]	*k[]
*M4/4	*M4/4	*M4/4	*M4/4
4r	8cc	2c	2c
.	8b-	.	.
8cc	8a	.	.
8b-	8g	.	.
=1	=1	=1	=1
8a	4f	1d	1d
8g	.	.	.
4f	4r	.	.
4r	8dd	.	.
.	8cc	.	.
8dd	8bn	.	.
8cc	8a	.	.
=2	=2	=2	=2
8bn	4g	1e	1e
8a	.	.	.
4g	4r	.	.
4r	8ee	.	.
.	8dd	.	.
8ee	8cc	.	.
8dd	8b	.	.
=3	=3	=3	=3
8cc	4a	1f	1f
8b	.	.	.
4a	4r	.	.
4r	8ff	.	.
.	8ee	.	.
8ff	8dd	.	.
8ee	8cc	.	.
=4	=4	=4	=4
8dd	4b	1g	1g
8cc	.	.	.
4b	4r	.	.
4r	8gg	.	.
.	8ff	.	.
8gg	8ee	.	.
8ff	8dd	.	.
=5	=5	=5	=5
4ee	4cc	1a	1a
8ee	2cc	.	.
8dd	.	.	.
4ee	.	.	.
4ff#	4cc#	.	.
=6	=6	=6	=6
4gg	2cc	2.g	1g
4dd	.	.	.
[2dd	2b	.	.
.	.	4f	.
=7	=7	=7	=7
4dd]	2.g	2e	1e
4cc	.	.	.
[2cc	.	2e	.
.	8a	.	.
.	8g	.	.
=8	=8	=8	=8
4cc]	2.f	1d	1d
4a	.	.	.
2b	.	.	.
.	8e	.	.
.	8d	.	.
=9	=9	=9	=9
2cc;	2e;	2cc;	2c;
==	==	==	==
*-	*-	*-	*-
!!!CDT: 1670///-1736//
!!!OCY: Italia
!!!ODT: 1729
!!!AFR: cantus firmus canon
!!!AST: polyphony
!!!AMT: simple quadruple
!!!AIN: vox
!!!YEP: David Huron and Denis Collins
!!!YEN: Canada
!!!EEV: 1.0
!!!RDT: 1995 April 29
!!!YED: 1995 August 31
